X:1
T:Title
%%score { 1 | 2 }
L:1/8
M:3/4
K:Eb
V:1 treble nm="Grand Piano"
V:2 bass 
V:1
 z2 z[Q:1/4=90] E EG | B3 c AB | G3 E EG | B3 c AB | G3 E G[GB] | [Ge]3 G Ac | %6
 [GB]3 [GB] [Fd][Ec] | [DB]3 [FA] [DF][DG] |[M:3/8] [B,E]3 | [GB][GB][EG] |[M:3/4] [GB]3 [GB] EG | %11
 [GB]3 G Ac | e3 e Ac | [GB]3 [GB] [GB]G | A3 A [DA][DF] | G3 E G[GB] | [Ge]3 [EG] [DF][DG] | %17
[M:3/8] [B,E]3 |] %18
V:2
 z2 z [E,G,B,] [E,G,B,][E,B,E] | [E,G,E]3 [E,A,E] [E,CE][E,G,E] | %2
 [E,B,E]3 [E,G,B,] [E,G,B,][E,B,E] | [E,G,E]3 [E,A,E] [E,CE][E,G,E] | %4
 [E,B,E]3 [E,G,] [E,B,E][E,B,] | [E,B,]3 [E,B,E][K:treble] [A,CE][A,EA] | %6
 [E,E]3 [E,B,] [B,,A,][B,,G,] | [B,,F,]3 [B,,B,] [B,,A,][B,,A,] |[M:3/8] [E,G,]3 | %9
 [E,E][E,E][E,B,] |[M:3/4] [E,E]3 [E,E] [E,G,][E,B,E] | [E,E]3 [E,B,E][K:treble] [A,CE][A,EA] | %12
 [A,CA]3 [A,CA] [A,C][A,EA] | [E,E]3 [E,E] [E,B,][E,B,E] | [F,B,D]3 [F,B,D] [B,,B,][B,,B,] | %15
 [E,B,E]3 [E,G,] [E,B,E][E,B,] | [E,B,]3 [E,B,] [B,,A,][B,,A,] |[M:3/8] [E,G,]3 |] %18

